contents/images/social-twitter.svg

<svg height="26" viewBox="0 0 26 26" width="26" xmlns="http://www.w3.org/2000/svg"><g fill="none" fill-rule="evenodd" transform="translate(1 1)"><circle cx="12" cy="12" opacity=".8" r="12" stroke="#00b8d9" stroke-width="2"/><path d="m17.5213043 9.9273913c.0052174.1056522.007174.2126087.007174.3182609 0 3.2543478-2.4763044 7.0056521-7.0043479 7.0056521-1.39108692 0-2.68434779-.4076086-3.7741304-1.1067391.19304348.0228261.38869565.0345652.58695652.0345652 1.15434783 0 2.21543478-.393913 3.05739128-1.0532608-1.0767391-.0202174-1.98652171-.731087-2.29956519-1.7093479.15.0280435.30456522.0430435.46304348.0430435.225 0 .44282608-.0293478.64891304-.0854348-1.12630435-.2269565-1.97478261-1.2215217-1.97478261-2.415 0-.0104347 0-.0202174 0-.0306521.33195652.1845652.71217391.2954347 1.11521739.3084782-.66065217-.4421739-1.09565217-1.1947826-1.09565217-2.04978259 0-.45065217.12130435-.87391304.33391304-1.23782608 1.21369565 1.49021739 3.02869562 2.46978257 5.07456522 2.57282607-.0417391-.1806522-.0632609-.3678261-.0632609-.56152173 0-1.35913043 1.1015218-2.46065217 2.4613044-2.46065217.7082608 0 1.3480435.29804348 1.7973913.77673913.5602174-.11086956 1.0871739-.31565217 1.5632609-.5973913-.1839131.57456521-.5745653 1.05717391-1.0826087 1.36173913.4982608-.06.9717391-.19108696 1.413913-.38739131-.33.49434783-.7473913.92739131-1.2286957 1.27369565z" fill="#00b8d9" fill-rule="nonzero"/></g></svg>

<?xml version="1.0" encoding="UTF-8"?>
<svg width="26px" height="26px" viewBox="0 0 26 26" version="1.1" xmlns="http://www.w3.org/2000/svg" xmlns:xlink="http://www.w3.org/1999/xlink">
    <!-- Generator: Sketch 47.1 (45422) - http://www.bohemiancoding.com/sketch -->
    <title>social-twitter</title>
    <desc>Created with Sketch.</desc>
    <defs></defs>
    <g id="Web" stroke="none" stroke-width="1" fill="none" fill-rule="evenodd">
        <g id="background-code" transform="translate(-1223.000000, -793.000000)">
            <g id="social" transform="translate(1223.000000, 713.000000)">
                <g id="Group-5" transform="translate(1.000000, 81.000000)">
                    <circle id="Oval-2" stroke="#00B8D9" stroke-width="2" opacity="0.800000012" cx="12" cy="12" r="12"></circle>
                    <path d="M17.5213043,9.9273913 C17.5265217,10.0330435 17.5284783,10.14 17.5284783,10.2456522 C17.5284783,13.5 15.0521739,17.2513043 10.5241304,17.2513043 C9.13304348,17.2513043 7.83978261,16.8436957 6.75,16.1445652 C6.94304348,16.1673913 7.13869565,16.1791304 7.33695652,16.1791304 C8.49130435,16.1791304 9.5523913,15.7852174 10.3943478,15.1258696 C9.3176087,15.1056522 8.40782609,14.3947826 8.09478261,13.4165217 C8.24478261,13.4445652 8.39934783,13.4595652 8.55782609,13.4595652 C8.78282609,13.4595652 9.00065217,13.4302174 9.20673913,13.3741304 C8.08043478,13.1471739 7.23195652,12.1526087 7.23195652,10.9591304 C7.23195652,10.9486957 7.23195652,10.938913 7.23195652,10.9284783 C7.56391304,11.1130435 7.94413043,11.223913 8.34717391,11.2369565 C7.68652174,10.7947826 7.25152174,10.0421739 7.25152174,9.18717391 C7.25152174,8.73652174 7.37282609,8.31326087 7.58543478,7.94934783 C8.79913043,9.43956522 10.6141304,10.4191304 12.66,10.5221739 C12.6182609,10.3415217 12.5967391,10.1543478 12.5967391,9.96065217 C12.5967391,8.60152174 13.6982609,7.5 15.0580435,7.5 C15.7663043,7.5 16.406087,7.79804348 16.8554348,8.27673913 C17.4156522,8.16586957 17.9426087,7.96108696 18.4186957,7.67934783 C18.2347826,8.25391304 17.8441304,8.73652174 17.336087,9.04108696 C17.8343478,8.98108696 18.3078261,8.85 18.75,8.65369565 C18.42,9.14804348 18.0026087,9.58108696 17.5213043,9.9273913 Z" id="Shape" fill="#00B8D9" fill-rule="nonzero"></path>
                </g>
            </g>
        </g>
    </g>
</svg>
